dist/assets/images/index/item-1.svg

<svg width="57" height="91" viewBox="0 0 57 91" fill="none" xmlns="http://www.w3.org/2000/svg">
<path d="M47.3 19.6L16.6 1.80004C14.2 0.400039 12 0.300039 10.3 1.20004L3.09998 5.50004C4.69998 4.60004 6.89998 4.70004 9.39998 6.10004L40 23.9C44.8 26.7 48.8 33.7 48.8 39.3V84.2C48.8 87 47.8 89 46.2 89.9L53.5 85.6C55.1 84.7 56.1 82.7 56.1 79.9V35C56.1 29.3 52.1 22.4 47.3 19.6Z" fill="white"/>
<path d="M46.2 90.4C46.1 90.4 45.8 90.3 45.8 90.1C45.7 89.9 45.7 89.5 46 89.4C47.5 88.5 48.3 86.7 48.3 84.1V39.3C48.3 33.8 44.5 27.1 39.8 24.4L9.00002 6.50003C6.90002 5.30003 4.80002 5.10003 3.30002 5.80003C3.10002 6.00003 2.80002 5.90003 2.60002 5.60003C2.50002 5.40003 2.60002 5.10003 2.80002 5.00003L10.1 0.70003C11.9 -0.39997 14.4 -0.19997 16.9 1.30003L47.6 19.2C52.6 22.1 56.6 29.3 56.6 35.1V80C56.6 82.9 55.6 85.1 53.8 86.2L46.5 90.5C46.4 90.4 46.2 90.4 46.2 90.4ZM6.00002 4.30003C7.10002 4.40003 8.30002 4.80003 9.60002 5.50003L40.3 23.4C45.3 26.3 49.3 33.5 49.3 39.3V84.2C49.3 85.6 49 86.9 48.6 87.9L53.3 85.2C54.8 84.3 55.6 82.5 55.6 79.9V35C55.6 29.5 51.8 22.8 47.1 20.1L16.4 2.20003C14.3 1.00003 12.1 0.80003 10.7 1.60003L6.00002 4.30003Z" fill="#0000BD"/>
<path d="M48.8 84.1C48.8 86.9 47.8 88.9 46.2 89.8C44.6 90.7001 42.4 90.6 39.9 89.2L9.3 71.4C4.5 68.6 0.5 61.6 0.5 56V11.2C0.5 8.40005 1.5 6.40005 3.1 5.50005C4.6 4.50005 6.8 4.60005 9.3 6.00005L40 23.9C44.8 26.7 48.8 33.7 48.8 39.3V84.1Z" fill="white"/>
<path d="M43.9 91C42.6 91 41.2 90.6 39.7 89.7L9 71.8C4 68.9 0 61.8 0 56V11.2C0 8.19996 1 6.09996 2.8 4.99996C4.6 3.89996 7.1 4.09996 9.6 5.59996L40.3 23.5C45.3 26.4 49.3 33.6 49.3 39.4V84.3C49.3 87.2 48.3 89.4 46.5 90.5C45.7 90.8 44.8 91 43.9 91ZM5.4 5.29996C4.6 5.29996 4 5.49996 3.3 5.79996C1.8 6.69996 1 8.59996 1 11.2V56C1 61.6 4.8 68.2 9.5 71L40.2 88.9C42.3 90.1 44.5 90.4 45.9 89.5C47.4 88.6 48.2 86.7999 48.2 84.2V39.3C48.2 33.8 44.4 27.1 39.7 24.4L9 6.49996C7.8 5.69996 6.5 5.29996 5.4 5.29996Z" fill="#0000BD"/>
<path d="M10.9 64.4C8.7 63.1 7 60.1 7 57.5V23.7C7 22.4 7.4 21.5 8.1 21.1C8.8 20.7 9.8 20.7 10.9 21.4L38.1 37.3C40.2 38.6 42 41.6 42 44.1V77.9C42 79.2 41.6 80.1 40.9 80.5C40.2 80.9 39.2 80.9 38.1 80.2L10.9 64.4Z" fill="white"/>
<path d="M39.8 81.3C39.2 81.3 38.5 81.0999 37.8 80.6999L10.6 64.8C8.30002 63.5 6.40002 60.2 6.40002 57.5V23.7C6.40002 22.3 6.90002 21.3 7.80002 20.7C8.70002 20.2 9.90002 20.3 11.1 21L38.3 36.9C40.6 38.3 42.5 41.5 42.5 44.2V78C42.5 79.4 42 80.5 41.1 81C40.8 81.2 40.3 81.3 39.8 81.3ZM9.10002 21.4C8.80002 21.4 8.50002 21.5 8.30002 21.6C7.70002 22 7.40002 22.7 7.40002 23.7V57.5C7.40002 59.7999 9.10002 62.7 11.1 63.9L38.3 79.8C39.2 80.3 40 80.3999 40.6 80.0999C41.2 79.6999 41.5 79 41.5 78V44.2C41.5 41.9 39.8 39 37.8 37.7999L10.6 21.9C10.1 21.6 9.50002 21.4 9.10002 21.4Z" fill="black"/>
<path d="M38.1 37.3L10.9 21.4C9.8 20.8 8.8 20.7 8.1 21.1L5.5 22.6C6.2 22.2 7.2 22.2 8.3 22.9L35.5 38.8C37.6 40.1 39.4 43.1 39.4 45.6V79.4C39.4 80.7 39 81.6 38.3 82L40.9 80.5C41.6 80.1 42 79.2 42 77.9V44.2C42 41.7 40.3 38.6 38.1 37.3Z" fill="white"/>
<path d="M38.3 82.6C38.2 82.6 37.9 82.5001 37.9 82.3001C37.8 82.1001 37.8 81.7 38.1 81.6C38.7 81.2 39 80.5 39 79.5V45.7001C39 43.4001 37.3 40.5 35.3 39.3L7.99999 23.4C7.09999 22.9 6.29999 22.8 5.69999 23.2C5.49999 23.3 5.09999 23.3 4.99999 23C4.89999 22.8 4.89999 22.4 5.19999 22.3L7.79999 20.8C8.69999 20.3 9.89999 20.4 11.1 21.1L38.3 37C40.6 38.4 42.5 41.6 42.5 44.3V78C42.5 79.4001 42 80.5 41.1 81L38.5 82.5C38.4 82.5 38.3 82.6 38.3 82.6ZM7.49999 22.1C7.79999 22.2 8.09999 22.3 8.49999 22.5L35.7 38.4001C38 39.8001 39.9 43 39.9 45.7001V79.5C39.9 79.9001 39.8 80.2 39.8 80.6L40.6 80.1C41.2 79.7 41.5 79 41.5 78V44.2001C41.5 41.9001 39.8 39 37.8 37.8L10.6 21.9C9.69999 21.4 8.89999 21.3 8.29999 21.6L7.49999 22.1Z" fill="#DF0112"/>
<path d="M8.30002 65.9C6.20002 64.6 4.40002 61.6 4.40002 59.1V25.2C4.40002 23.9 4.80002 23 5.50002 22.6C6.20002 22.2 7.20002 22.2 8.30002 22.9L35.5 38.8C37.6 40.1 39.4 43.1 39.4 45.6V79.4C39.4 80.7 39 81.6 38.3 82C37.6 82.4 36.6 82.4 35.5 81.7L8.30002 65.9Z" fill="white"/>
<path d="M37.3 82.8C36.7 82.8 36 82.5999 35.3 82.1999L7.99999 66.4C5.69999 65 3.79999 61.7 3.79999 59V25.2C3.79999 23.8 4.29999 22.8 5.19999 22.2C6.09999 21.7 7.29999 21.8 8.49999 22.5L35.7 38.4C38 39.8 39.9 43 39.9 45.7V79.5C39.9 80.9 39.4 82 38.5 82.5C38.1 82.7 37.7 82.8 37.3 82.8ZM6.49999 22.9C6.19999 22.9 5.89999 23 5.69999 23.1C5.09999 23.5 4.79999 24.2 4.79999 25.2V59C4.79999 61.2999 6.49999 64.2 8.49999 65.4L35.7 81.3C36.6 81.8 37.4 81.8999 38 81.5999C38.6 81.1999 38.9 80.5 38.9 79.5V45.7C38.9 43.4 37.2 40.5 35.2 39.2999L7.99999 23.4C7.49999 23.1 6.99999 22.9 6.49999 22.9Z" fill="#DF0112"/>
<path d="M10.9 30.8L7.5 28.9V22.5L10.9 24.4V30.8Z" fill="white"/>
<path d="M7.5 22.5L13 19.3L16.3 21.3L10.9 24.5L7.5 22.5Z" fill="white"/>
<path d="M10.9 31.4C10.8 31.4 10.8 31.4 10.6 31.3L7.20002 29.3C7.00002 29.3 6.90002 29 6.90002 28.9V22.5C6.90002 22.3 7.00002 22.1 7.20002 22.1C7.30002 22 7.60002 22 7.70002 22.1L11.1 24.1C11.2 24.2 11.4 24.4 11.4 24.5V30.9C11.4 31.1 11.3 31.3 11.1 31.3C11 31.3 11 31.4 10.9 31.4ZM8.00002 28.6L10.3 30V24.8L8.00002 23.4V28.6Z" fill="#DF0112"/>
<path d="M13.7 29.2001V26.2001L16.3 24.6V21.3L10.9 24.5V30.9L13.7 29.2001Z" fill="white"/>
<path d="M10.9 31.4C10.8 31.4 10.8 31.4 10.6 31.3C10.5 31.2 10.3 31 10.3 30.9V24.4C10.3 24.2 10.4 24 10.6 24L16.1 20.8C16.2 20.7 16.5 20.7 16.6 20.8C16.7 20.9 16.9 21.1 16.9 21.2V24.6C16.9 24.8 16.8 25 16.6 25L14.3 26.4V29.1C14.3 29.3 14.2 29.5 14 29.5L11.2 31.2C11 31.3 11 31.4 10.9 31.4ZM11.4 24.7V30L13.2 28.9V26.2C13.2 26 13.3 25.8 13.5 25.8L15.8 24.4V22.2L11.4 24.7Z" fill="#DF0112"/>
<path d="M10.9 24.9C10.8 24.9 10.8 24.9 10.6 24.8L7.20002 22.8C7.10002 22.7 6.90002 22.5 6.90002 22.4C6.90002 22.2 7.00002 22 7.20002 22L12.7 18.8C12.8 18.7 13.1 18.7 13.2 18.8L16.6 20.8C16.7 20.9 16.9 21.1 16.9 21.2C16.9 21.4 16.8 21.6 16.6 21.6L11.1 24.8C11 24.9 11 24.9 10.9 24.9ZM8.50002 22.5L10.8 23.9L15.3 21.3L13 19.9L8.50002 22.5Z" fill="#DF0112"/>
<path d="M31.1 42.7001L27.7 40.7001V34.3L31.1 36.2001V42.7001Z" fill="white"/>
<path d="M31.1 43.2C31 43.2 30.9 43.1999 30.8 43.0999L27.4 41.0999C27.3 40.9999 27.1 40.8 27.1 40.7V34.2999C27.1 34.0999 27.2 33.9 27.4 33.9C27.5 33.8 27.8 33.8 27.9 33.9L31.3 35.9C31.4 36 31.6 36.1999 31.6 36.2999V42.7C31.6 42.9 31.5 43.0999 31.3 43.0999C31.3 43.1999 31.2 43.2 31.1 43.2ZM28.2 40.4L30.5 41.7999V36.5999L28.2 35.2V40.4Z" fill="#DF0112"/>
<path d="M33.9 41V38L36.5 36.5V33.1L31 36.3V42.8L33.9 41Z" fill="white"/>
<path d="M31.1 43.2C31 43.2 31 43.2 30.8 43.1C30.7 43 30.5 42.8 30.5 42.7V36.3C30.5 36.1 30.6 35.9 30.8 35.9L36.3 32.7C36.4 32.6 36.7 32.6 36.8 32.7C36.9 32.8 37.1 33 37.1 33.1V36.5C37.1 36.7 37 36.9 36.8 36.9L34.5 38.3V41C34.5 41.2 34.4 41.4 34.2 41.4L31.3 43C31.3 43.2 31.2 43.2 31.1 43.2ZM31.6 36.6V41.8L33.4 40.7V38C33.4 37.8 33.5 37.6 33.7 37.6L36 36.2V34L31.6 36.6Z" fill="#DF0112"/>
<path d="M27.7 34.3L33.2 31.1L36.6 33L31.1 36.2L27.7 34.3Z" fill="white"/>
<path d="M31.1 36.8C31 36.8 30.9 36.8 30.8 36.7L27.4 34.7C27.3 34.6 27.1 34.4 27.1 34.3C27.1 34.2 27.2 33.9 27.4 33.9L32.9 30.7C33 30.6 33.3 30.6 33.4 30.7L36.8 32.7C36.9 32.8 37.1 33 37.1 33.1C37.1 33.2 37 33.5 36.8 33.5L31.3 36.7C31.3 36.7 31.2 36.8 31.1 36.8ZM28.7 34.3L31 35.7L35.5 33.1L33.2 31.7L28.7 34.3Z" fill="#DF0112"/>
<path d="M21 36.8L17.6 34.8V28.4L21 30.3V36.8Z" fill="white"/>
<path d="M21 37.3C20.9 37.3 20.9 37.3 20.7 37.2L17.4 35.2C17.3 35.1 17.1 34.9 17.1 34.8V28.4C17.1 28.2 17.2 28 17.4 28C17.5 27.9 17.8 27.9 17.9 28L21.3 30C21.4 30.1 21.6 30.3 21.6 30.4V36.8C21.6 37 21.5 37.2 21.3 37.2C21.1 37.2 21.1 37.3 21 37.3ZM18.1 34.5L20.4 35.9001V30.7L18.1 29.3V34.5Z" fill="#DF0112"/>
<path d="M23.8 35.0999V32.0999L26.4 30.6V27.2L21 30.2999V36.7999L23.8 35.0999Z" fill="white"/>
<path d="M21 37.3C20.9 37.3 20.9 37.3 20.7 37.2C20.5 37.1 20.4 36.9 20.4 36.8V30.4C20.4 30.2 20.5 30 20.7 30L26.2 26.8C26.3 26.7 26.6 26.7 26.7 26.8C26.8 26.9 27 27.1 27 27.2V30.6C27 30.8 26.9 31 26.7 31L24.4 32.3V35C24.4 35.2 24.3 35.4 24.1 35.4L21.3 37.1C21.1 37.2 21.1 37.3 21 37.3ZM21.5 30.6V35.8L23.3 34.7V32C23.3 31.8 23.4 31.6 23.6 31.6L25.9 30.2V28L21.5 30.6Z" fill="#DF0112"/>
<path d="M17.6 28.4L23.1 25.2L26.5 27.2L21 30.2999L17.6 28.4Z" fill="white"/>
<path d="M21 30.8C20.9 30.8 20.9 30.8 20.7 30.7L17.3 28.7C17.2 28.7 17.1 28.5 17.1 28.3C17.1 28.1 17.2 27.9 17.4 27.9L22.9 24.7C23 24.6 23.3 24.6 23.4 24.7L26.8 26.7C26.9 26.8 27.1 27 27.1 27.1C27.1 27.3 27 27.5 26.8 27.5L21.3 30.7C21.1 30.8 21.1 30.8 21 30.8ZM18.6 28.4L20.9 29.8L25.4 27.2L23 25.8L18.6 28.4Z" fill="#DF0112"/>
<path d="M14.5 40.6C17.6 42.4 19.6 45.7 19.6 48.9C19.6 51.5 18.3 52.5 16.7 53C15.9 53.3 15.7 53.3 13.8 53.7C12.1 54 10.2 54.3 9.80001 56.5L19.9 62.3V63.3L8.70001 56.9C8.90001 53.9 10.6 53.1 12.8 52.6L14.3 52.3C16.3 51.9 18.7 51.4 18.7 48.3C18.7 45.7 17.1 43 14.5 41.5C11.3 39.6 10.1 41.6 10.1 44.8L9.10001 44.2C9.10001 44 9.10001 43.8 9.10001 43.6C9.20001 40.1 11.1 38.6 14.5 40.6Z" fill="#DF0112"/>
<path d="M32.4 53.7C33.3 55.8 33.7 58.1 33.7 61.2C33.7 65.8 32.8 71.3 27.6 68.3C24.8 66.7 22.7 63.5 22.4 60.3L23.4 60.9C23.8 63.6 25.4 66.1 27.6 67.3C30.9 69.2 32.7 67 32.7 61V59.9C31.9 61.9 30.3 62.8 27.6 61.3C24.4 59.4 22 55.3 22 51.5C22 47.7 24.5 46.3 27.7 48.2C29.7 49.4 31.4 51.3 32.4 53.7ZM27.7 60.4C30.4 62 32.5 60.8 32.5 57.6C32.5 54.5 30.4 50.8 27.7 49.3C25.1 47.7 23 49 23 52.1C23 55.3 25 58.8 27.7 60.4Z" fill="#DF0112"/>
</svg>

<svg width="57" height="91" fill="none" xmlns="http://www.w3.org/2000/svg"><path d="M47.3 19.6L16.6 1.8C14.2.4 12 .3 10.3 1.2L3.1 5.5c1.6-.9 3.8-.8 6.3.6L40 23.9c4.8 2.8 8.8 9.8 8.8 15.4v44.9c0 2.8-1 4.8-2.6 5.7l7.3-4.3c1.6-.9 2.6-2.9 2.6-5.7V35c0-5.7-4-12.6-8.8-15.4z" fill="#fff"/><path d="M46.2 90.4c-.1 0-.4-.1-.4-.3-.1-.2-.1-.6.2-.7 1.5-.9 2.3-2.7 2.3-5.3V39.3c0-5.5-3.8-12.2-8.5-14.9L9 6.5c-2.1-1.2-4.2-1.4-5.7-.7-.2.2-.5.1-.7-.2-.1-.2 0-.5.2-.6L10.1.7c1.8-1.1 4.3-.9 6.8.6l30.7 17.9c5 2.9 9 10.1 9 15.9V80c0 2.9-1 5.1-2.8 6.2l-7.3 4.3c-.1-.1-.3-.1-.3-.1zM6 4.3c1.1.1 2.3.5 3.6 1.2l30.7 17.9c5 2.9 9 10.1 9 15.9v44.9c0 1.4-.3 2.7-.7 3.7l4.7-2.7c1.5-.9 2.3-2.7 2.3-5.3V35c0-5.5-3.8-12.2-8.5-14.9L16.4 2.2C14.3 1 12.1.8 10.7 1.6L6 4.3z" fill="#0000BD"/><path d="M48.8 84.1c0 2.8-1 4.8-2.6 5.7-1.6.9-3.8.8-6.3-.6L9.3 71.4C4.5 68.6.5 61.6.5 56V11.2c0-2.8 1-4.8 2.6-5.7 1.5-1 3.7-.9 6.2.5L40 23.9c4.8 2.8 8.8 9.8 8.8 15.4v44.8z" fill="#fff"/><path d="M43.9 91c-1.3 0-2.7-.4-4.2-1.3L9 71.8c-5-2.9-9-10-9-15.8V11.2c0-3 1-5.1 2.8-6.2 1.8-1.1 4.3-.9 6.8.6l30.7 17.9c5 2.9 9 10.1 9 15.9v44.9c0 2.9-1 5.1-2.8 6.2-.8.3-1.7.5-2.6.5zM5.4 5.3c-.8 0-1.4.2-2.1.5C1.8 6.7 1 8.6 1 11.2V56c0 5.6 3.8 12.2 8.5 15l30.7 17.9c2.1 1.2 4.3 1.5 5.7.6 1.5-.9 2.3-2.7 2.3-5.3V39.3c0-5.5-3.8-12.2-8.5-14.9L9 6.5c-1.2-.8-2.5-1.2-3.6-1.2z" fill="#0000BD"/><path d="M10.9 64.4C8.7 63.1 7 60.1 7 57.5V23.7c0-1.3.4-2.2 1.1-2.6.7-.4 1.7-.4 2.8.3l27.2 15.9c2.1 1.3 3.9 4.3 3.9 6.8v33.8c0 1.3-.4 2.2-1.1 2.6-.7.4-1.7.4-2.8-.3L10.9 64.4z" fill="#fff"/><path d="M39.8 81.3c-.6 0-1.3-.2-2-.6L10.6 64.8c-2.3-1.3-4.2-4.6-4.2-7.3V23.7c0-1.4.5-2.4 1.4-3 .9-.5 2.1-.4 3.3.3l27.2 15.9c2.3 1.4 4.2 4.6 4.2 7.3V78c0 1.4-.5 2.5-1.4 3-.3.2-.8.3-1.3.3zM9.1 21.4c-.3 0-.6.1-.8.2-.6.4-.9 1.1-.9 2.1v33.8c0 2.3 1.7 5.2 3.7 6.4l27.2 15.9c.9.5 1.7.6 2.3.3.6-.4.9-1.1.9-2.1V44.2c0-2.3-1.7-5.2-3.7-6.4L10.6 21.9c-.5-.3-1.1-.5-1.5-.5z" fill="#000"/><path d="M38.1 37.3L10.9 21.4c-1.1-.6-2.1-.7-2.8-.3l-2.6 1.5c.7-.4 1.7-.4 2.8.3l27.2 15.9c2.1 1.3 3.9 4.3 3.9 6.8v33.8c0 1.3-.4 2.2-1.1 2.6l2.6-1.5c.7-.4 1.1-1.3 1.1-2.6V44.2c0-2.5-1.7-5.6-3.9-6.9z" fill="#fff"/><path d="M38.3 82.6c-.1 0-.4-.1-.4-.3-.1-.2-.1-.6.2-.7.6-.4.9-1.1.9-2.1V45.7c0-2.3-1.7-5.2-3.7-6.4L8 23.4c-.9-.5-1.7-.6-2.3-.2-.2.1-.6.1-.7-.2-.1-.2-.1-.6.2-.7l2.6-1.5c.9-.5 2.1-.4 3.3.3L38.3 37c2.3 1.4 4.2 4.6 4.2 7.3V78c0 1.4-.5 2.5-1.4 3l-2.6 1.5c-.1 0-.2.1-.2.1zM7.5 22.1c.3.1.6.2 1 .4l27.2 15.9c2.3 1.4 4.2 4.6 4.2 7.3v33.8c0 .4-.1.7-.1 1.1l.8-.5c.6-.4.9-1.1.9-2.1V44.2c0-2.3-1.7-5.2-3.7-6.4L10.6 21.9c-.9-.5-1.7-.6-2.3-.3l-.8.5z" fill="#DF0112"/><path d="M8.3 65.9c-2.1-1.3-3.9-4.3-3.9-6.8V25.2c0-1.3.4-2.2 1.1-2.6.7-.4 1.7-.4 2.8.3l27.2 15.9c2.1 1.3 3.9 4.3 3.9 6.8v33.8c0 1.3-.4 2.2-1.1 2.6-.7.4-1.7.4-2.8-.3L8.3 65.9z" fill="#fff"/><path d="M37.3 82.8c-.6 0-1.3-.2-2-.6L8 66.4C5.7 65 3.8 61.7 3.8 59V25.2c0-1.4.5-2.4 1.4-3 .9-.5 2.1-.4 3.3.3l27.2 15.9c2.3 1.4 4.2 4.6 4.2 7.3v33.8c0 1.4-.5 2.5-1.4 3-.4.2-.8.3-1.2.3zM6.5 22.9c-.3 0-.6.1-.8.2-.6.4-.9 1.1-.9 2.1V59c0 2.3 1.7 5.2 3.7 6.4l27.2 15.9c.9.5 1.7.6 2.3.3.6-.4.9-1.1.9-2.1V45.7c0-2.3-1.7-5.2-3.7-6.4L8 23.4c-.5-.3-1-.5-1.5-.5z" fill="#DF0112"/><path d="M10.9 30.8l-3.4-1.9v-6.4l3.4 1.9v6.4z" fill="#fff"/><path d="M7.5 22.5l5.5-3.2 3.3 2-5.4 3.2-3.4-2z" fill="#fff"/><path d="M10.9 31.4c-.1 0-.1 0-.3-.1l-3.4-2c-.2 0-.3-.3-.3-.4v-6.4c0-.2.1-.4.3-.4.1-.1.4-.1.5 0l3.4 2c.1.1.3.3.3.4v6.4c0 .2-.1.4-.3.4-.1 0-.1.1-.2.1zM8 28.6l2.3 1.4v-5.2L8 23.4v5.2z" fill="#DF0112"/><path d="M13.7 29.2v-3l2.6-1.6v-3.3l-5.4 3.2v6.4l2.8-1.7z" fill="#fff"/><path d="M10.9 31.4c-.1 0-.1 0-.3-.1-.1-.1-.3-.3-.3-.4v-6.5c0-.2.1-.4.3-.4l5.5-3.2c.1-.1.4-.1.5 0 .1.1.3.3.3.4v3.4c0 .2-.1.4-.3.4l-2.3 1.4v2.7c0 .2-.1.4-.3.4l-2.8 1.7c-.2.1-.2.2-.3.2zm.5-6.7V30l1.8-1.1v-2.7c0-.2.1-.4.3-.4l2.3-1.4v-2.2l-4.4 2.5z" fill="#DF0112"/><path d="M10.9 24.9c-.1 0-.1 0-.3-.1l-3.4-2c-.1-.1-.3-.3-.3-.4 0-.2.1-.4.3-.4l5.5-3.2c.1-.1.4-.1.5 0l3.4 2c.1.1.3.3.3.4 0 .2-.1.4-.3.4l-5.5 3.2c-.1.1-.1.1-.2.1zm-2.4-2.4l2.3 1.4 4.5-2.6-2.3-1.4-4.5 2.6z" fill="#DF0112"/><path d="M31.1 42.7l-3.4-2v-6.4l3.4 1.9v6.5z" fill="#fff"/><path d="M31.1 43.2c-.1 0-.2 0-.3-.1l-3.4-2c-.1-.1-.3-.3-.3-.4v-6.4c0-.2.1-.4.3-.4.1-.1.4-.1.5 0l3.4 2c.1.1.3.3.3.4v6.4c0 .2-.1.4-.3.4 0 .1-.1.1-.2.1zm-2.9-2.8l2.3 1.4v-5.2l-2.3-1.4v5.2z" fill="#DF0112"/><path d="M33.9 41v-3l2.6-1.5v-3.4L31 36.3v6.5l2.9-1.8z" fill="#fff"/><path d="M31.1 43.2c-.1 0-.1 0-.3-.1-.1-.1-.3-.3-.3-.4v-6.4c0-.2.1-.4.3-.4l5.5-3.2c.1-.1.4-.1.5 0 .1.1.3.3.3.4v3.4c0 .2-.1.4-.3.4l-2.3 1.4V41c0 .2-.1.4-.3.4L31.3 43c0 .2-.1.2-.2.2zm.5-6.6v5.2l1.8-1.1V38c0-.2.1-.4.3-.4l2.3-1.4V34l-4.4 2.6z" fill="#DF0112"/><path d="M27.7 34.3l5.5-3.2 3.4 1.9-5.5 3.2-3.4-1.9z" fill="#fff"/><path d="M31.1 36.8c-.1 0-.2 0-.3-.1l-3.4-2c-.1-.1-.3-.3-.3-.4 0-.1.1-.4.3-.4l5.5-3.2c.1-.1.4-.1.5 0l3.4 2c.1.1.3.3.3.4 0 .1-.1.4-.3.4l-5.5 3.2s-.1.1-.2.1zm-2.4-2.5l2.3 1.4 4.5-2.6-2.3-1.4-4.5 2.6z" fill="#DF0112"/><path d="M21 36.8l-3.4-2v-6.4l3.4 1.9v6.5z" fill="#fff"/><path d="M21 37.3c-.1 0-.1 0-.3-.1l-3.3-2c-.1-.1-.3-.3-.3-.4v-6.4c0-.2.1-.4.3-.4.1-.1.4-.1.5 0l3.4 2c.1.1.3.3.3.4v6.4c0 .2-.1.4-.3.4-.2 0-.2.1-.3.1zm-2.9-2.8l2.3 1.4v-5.2l-2.3-1.4v5.2z" fill="#DF0112"/><path d="M23.8 35.1v-3l2.6-1.5v-3.4L21 30.3v6.5l2.8-1.7z" fill="#fff"/><path d="M21 37.3c-.1 0-.1 0-.3-.1-.2-.1-.3-.3-.3-.4v-6.4c0-.2.1-.4.3-.4l5.5-3.2c.1-.1.4-.1.5 0 .1.1.3.3.3.4v3.4c0 .2-.1.4-.3.4l-2.3 1.3V35c0 .2-.1.4-.3.4l-2.8 1.7c-.2.1-.2.2-.3.2zm.5-6.7v5.2l1.8-1.1V32c0-.2.1-.4.3-.4l2.3-1.4V28l-4.4 2.6z" fill="#DF0112"/><path d="M17.6 28.4l5.5-3.2 3.4 2-5.5 3.1-3.4-1.9z" fill="#fff"/><path d="M21 30.8c-.1 0-.1 0-.3-.1l-3.4-2c-.1 0-.2-.2-.2-.4s.1-.4.3-.4l5.5-3.2c.1-.1.4-.1.5 0l3.4 2c.1.1.3.3.3.4 0 .2-.1.4-.3.4l-5.5 3.2c-.2.1-.2.1-.3.1zm-2.4-2.4l2.3 1.4 4.5-2.6-2.4-1.4-4.4 2.6zm-4.1 12.2c3.1 1.8 5.1 5.1 5.1 8.3 0 2.6-1.3 3.6-2.9 4.1-.8.3-1 .3-2.9.7-1.7.3-3.6.6-4 2.8l10.1 5.8v1L8.7 56.9c.2-3 1.9-3.8 4.1-4.3l1.5-.3c2-.4 4.4-.9 4.4-4 0-2.6-1.6-5.3-4.2-6.8-3.2-1.9-4.4.1-4.4 3.3l-1-.6v-.6c.1-3.5 2-5 5.4-3zm17.9 13.1c.9 2.1 1.3 4.4 1.3 7.5 0 4.6-.9 10.1-6.1 7.1-2.8-1.6-4.9-4.8-5.2-8l1 .6c.4 2.7 2 5.2 4.2 6.4 3.3 1.9 5.1-.3 5.1-6.3v-1.1c-.8 2-2.4 2.9-5.1 1.4-3.2-1.9-5.6-6-5.6-9.8 0-3.8 2.5-5.2 5.7-3.3 2 1.2 3.7 3.1 4.7 5.5zm-4.7 6.7c2.7 1.6 4.8.4 4.8-2.8 0-3.1-2.1-6.8-4.8-8.3-2.6-1.6-4.7-.3-4.7 2.8 0 3.2 2 6.7 4.7 8.3z" fill="#DF0112"/></svg>
